icons/evolvere-blue-folders-flat-vivid-dark-fallback/apps/64/volume-control.svg

<?xml version="1.0" encoding="UTF-8" standalone="no"?>
<!-- Created with Inkscape (http://www.inkscape.org/) -->

<svg
   xmlns:dc="http://purl.org/dc/elements/1.1/"
   xmlns:cc="http://creativecommons.org/ns#"
   xmlns:rdf="http://www.w3.org/1999/02/22-rdf-syntax-ns#"
   xmlns:svg="http://www.w3.org/2000/svg"
   xmlns="http://www.w3.org/2000/svg"
   xmlns:xlink="http://www.w3.org/1999/xlink"
   xmlns:sodipodi="http://sodipodi.sourceforge.net/DTD/sodipodi-0.dtd"
   xmlns:inkscape="http://www.inkscape.org/namespaces/inkscape"
   width="64"
   height="64"
   id="svg13094"
   version="1.1"
   inkscape:version="0.91+devel r"
   sodipodi:docname="volume-control.svg">
  <sodipodi:namedview
     id="base"
     pagecolor="#ffffff"
     bordercolor="#666666"
     borderopacity="1.0"
     inkscape:pageopacity="0"
     inkscape:pageshadow="2"
     inkscape:zoom="11.313709"
     inkscape:cx="21.948566"
     inkscape:cy="30.477404"
     inkscape:document-units="px"
     inkscape:current-layer="g9141"
     showgrid="true"
     inkscape:snap-bbox="true"
     inkscape:bbox-paths="true"
     inkscape:bbox-nodes="true"
     inkscape:snap-bbox-edge-midpoints="true"
     inkscape:snap-bbox-midpoints="true"
     inkscape:object-paths="true"
     inkscape:snap-intersection-paths="true"
     inkscape:object-nodes="true"
     inkscape:snap-smooth-nodes="true"
     inkscape:snap-midpoints="true"
     inkscape:snap-object-midpoints="true"
     inkscape:snap-center="true"
     showguides="true"
     inkscape:guide-bbox="true"
     inkscape:window-width="1920"
     inkscape:window-height="1023"
     inkscape:window-x="-10"
     inkscape:window-y="35"
     inkscape:window-maximized="1"
     inkscape:snap-global="true"
     fit-margin-top="0"
     fit-margin-left="0"
     fit-margin-right="0"
     fit-margin-bottom="0"
     showborder="true"
     inkscape:showpageshadow="false"
     inkscape:snap-page="true">
    <inkscape:grid
       type="xygrid"
       id="grid3075"
       empspacing="5"
       visible="true"
       enabled="true"
       snapvisiblegridlinesonly="true"
       originx="1.6362304e-08px"
       originy="18px" />
  </sodipodi:namedview>
  <defs
     id="defs13096">
    <linearGradient
       id="linearGradient24214">
      <stop
         style="stop-color:#ff2929;stop-opacity:0.83363146"
         offset="0"
         id="stop24216" />
      <stop
         id="stop24222"
         offset="0.5"
         style="stop-color:#fff345;stop-opacity:0.9096601" />
      <stop
         style="stop-color:#5eef28;stop-opacity:0.77012521"
         offset="1"
         id="stop24218" />
    </linearGradient>
    <linearGradient
       inkscape:collect="always"
       xlink:href="#linearGradient24214"
       id="linearGradient24220"
       x1="60.823837"
       y1="28.89045"
       x2="27.694199"
       y2="62.020088"
       gradientUnits="userSpaceOnUse" />
  </defs>
  <metadata
     id="metadata13099">
    <rdf:RDF>
      <cc:Work
         rdf:about="">
        <dc:format>image/svg+xml</dc:format>
        <dc:type
           rdf:resource="http://purl.org/dc/dcmitype/StillImage" />
        <dc:title></dc:title>
      </cc:Work>
    </rdf:RDF>
  </metadata>
  <path
     inkscape:connector-curvature="0"
     style="color:#000000;fill:#365072;fill-opacity:1;fill-rule:nonzero;stroke:none;stroke-width:2.28571415;marker:none;visibility:visible;display:inline;overflow:visible;enable-background:accumulate"
     d="m 0,4 0,30 0,28 2,2 30,0 30,0 2,-2 L 64,34 64,4 32,4 0,4 z"
     id="path6383" />
  <path
     inkscape:connector-curvature="0"
     style="color:#000000;fill:#7090b3;fill-opacity:1;fill-rule:nonzero;stroke:none;stroke-width:2.28571415;marker:none;visibility:visible;display:inline;overflow:visible;enable-background:accumulate"
     d="M 2,0 0,1 0,4 32,4 64,4 64,1 62,0 32,0 2,0 z"
     id="path6502" />
  <path
     inkscape:connector-curvature="0"
     style="fill:#8aa4c1;fill-opacity:1;fill-rule:nonzero"
     d="M 0,3 0,6 2,4 Z"
     id="path4298"
     sodipodi:nodetypes="cccc" />
  <path
     d="M 64,6 62,4 64,3 z"
     id="path3028"
     style="fill:#526f92;fill-opacity:1"
     inkscape:connector-curvature="0" />
  <g
     id="g9141"
     transform="translate(0,1)">
    <g
       transform="translate(-67.866026,-1.18e-6)"
       id="g9049">
      <path
         sodipodi:type="arc"
         style="opacity:1;color:#000000;fill:#000e35;fill-opacity:0.22629696;fill-rule:evenodd;stroke:none;stroke-width:1;marker:none;visibility:visible;display:inline;overflow:visible;enable-background:accumulate;stroke-linecap:butt;stroke-linejoin:miter;stroke-miterlimit:4;stroke-dasharray:none;stroke-dashoffset:0;stroke-opacity:1"
         id="path24203"
         sodipodi:cx="33"
         sodipodi:cy="35"
         sodipodi:rx="24"
         sodipodi:ry="24"
         d="M 33.000001,59 A 24,24 0 0 1 10.826891,44.184403 24,24 0 0 1 16.029437,18.029438 24,24 0 0 1 42.184402,12.826891 24,24 0 0 1 57,35 l -24,0 z"
         transform="translate(66.866027,-1.9999985)"
         sodipodi:start="1.5707963"
         sodipodi:end="6.2831853" />
      <path
         transform="matrix(0.87499999,0,0,0.87499999,70.991027,2.3750015)"
         style="color:#000000;fill:url(#linearGradient24220);fill-opacity:1;fill-rule:evenodd;stroke:none;stroke-width:1.33333290000000004;marker:none;visibility:visible;display:inline;overflow:visible;enable-background:accumulate"
         d="m 58.499252,34.804735 -2.999912,0.02297 c 0.04472,-5.844585 -2.333248,-11.755689 -6.474944,-15.975283 -4.134169,-4.22718 -10.044326,-6.772013 -16.024397,-6.850796 -6.009278,-0.08783 -12.084882,2.317932 -16.439366,6.559001 -1e-6,0 -2e-6,1e-6 -2e-6,2e-6 -4.359113,4.236441 -6.9785296,10.292697 -7.0598165,16.439369 0,1e-6 -1e-7,3e-6 -1e-7,5e-6 -0.085649,6.14667 2.3690106,12.340315 6.7056876,16.793493 C 20.541638,56.24822 26.715937,58.916531 33.000001,59 26.715937,59.083469 20.404246,56.579914 15.852373,52.147628 11.302044,47.713799 8.5848376,41.421458 8.4991856,35.000004 c -1e-7,-10e-7 -1e-7,-2e-6 -1e-7,-3e-6 -0.081287,-6.421456 2.4711625,-12.851191 6.9990575,-17.501757 10e-7,-2e-6 3e-6,-3e-6 4e-6,-4e-6 4.532523,-4.645936 10.942906,-7.412036 17.501752,-7.499869 6.526738,-0.078784 13.043255,2.495831 17.78653,7.078375 4.735748,4.59013 7.572237,11.066133 7.712723,17.727989 z"
         id="path3093" />
    </g>
    <rect
       inkscape:transform-center-x="-5.2842027"
       transform="matrix(0.70710678,-0.70710678,0.70710678,0.70710678,0,0)"
       inkscape:transform-center-y="5.2842037"
       ry="18"
       rx="18"
       y="27.961941"
       x="-18.707108"
       height="50.945984"
       width="36"
       id="rect9093"
       style="color:#000000;fill:#000e35;fill-opacity:0.12254025;fill-rule:nonzero;stroke:none;stroke-width:1;marker:none;visibility:visible;display:inline;overflow:visible;enable-background:accumulate" />
    <circle
       r="18"
       cy="33"
       cx="32"
       style="color:#000000;display:inline;overflow:visible;visibility:visible;fill:#cde1ed;fill-opacity:1;fill-rule:nonzero;stroke:none;stroke-width:1;marker:none;enable-background:accumulate"
       id="path7645" />
    <circle
       id="path4570"
       style="color:#000000;display:inline;overflow:visible;visibility:visible;fill:#a2bbcb;fill-opacity:1;fill-rule:nonzero;stroke:none;stroke-width:0.77777779;marker:none;enable-background:accumulate"
       cx="32"
       cy="35"
       r="14" />
    <circle
       style="color:#000000;fill:#0d1428;fill-opacity:0.33184257;fill-rule:nonzero;stroke:none;stroke-width:1;marker:none;visibility:visible;display:inline;overflow:visible;enable-background:accumulate;opacity:1;stroke-linecap:butt;stroke-linejoin:miter;stroke-miterlimit:4;stroke-dasharray:none;stroke-dashoffset:0;stroke-opacity:1"
       id="path9080"
       transform="translate(0,-1.5)"
       d="M 43,34.5 A 1.5,1.5 0 0 1 41.5,36 1.5,1.5 0 0 1 40,34.5 1.5,1.5 0 0 1 41.5,33 1.5,1.5 0 0 1 43,34.5 Z"
       sodipodi:type="arc"
       sodipodi:ry="1.5"
       sodipodi:rx="1.5"
       sodipodi:cy="34.5"
       sodipodi:cx="41.5" />
    <path
       style="color:#000000;display:inline;overflow:visible;visibility:visible;opacity:1;fill:#cde1ed;fill-opacity:1;fill-rule:nonzero;stroke:none;stroke-width:1;stroke-linecap:butt;stroke-linejoin:miter;stroke-miterlimit:4;stroke-dasharray:none;stroke-dashoffset:0;stroke-opacity:1;marker:none;enable-background:accumulate"
       d="m 54.216294,27.047162 -6.313193,-0.378937 1.035276,3.863703 z"
       id="path4334"
       inkscape:connector-curvature="0"
       sodipodi:nodetypes="cccc"
       inkscape:transform-center-y="-4.3999235"
       inkscape:transform-center-x="-19.059697" />
  </g>
</svg>

<svg xmlns="http://www.w3.org/2000/svg" viewBox="0 0 64 64"><defs><linearGradient id="0" x1="60.824" y1="28.89" x2="27.694" y2="62.02" gradientUnits="userSpaceOnUse"><stop stop-color="#ff2929" stop-opacity=".834"/><stop offset=".5" stop-color="#fff345" stop-opacity=".91"/><stop offset="1" stop-color="#5eef28" stop-opacity=".77"/></linearGradient></defs><g color="#000"><path d="m0 4v30 28l2 2h30 30l2-2v-28-30h-32-32" fill="#365072"/><path d="m2 0l-2 1v3h32 32v-3l-2-1h-30-30" fill="#7090b3"/></g><path d="m0 3v3l2-2" fill="#8aa4c1"/><path d="m64 6l-2-2 2-1z" fill="#526f92"/><g transform="translate(0 1)" color="#000"><g transform="translate(-67.866)" fill-rule="evenodd"><path d="M33 59A24 24 0 0 1 10.826891 44.1844 24 24 0 0 1 16.02944 18.02944 24 24 0 0 1 42.1844 12.826891 24 24 0 0 1 57 35h-24z" transform="translate(66.866-2)" fill-opacity=".226" fill="#000e35"/><path transform="matrix(.875 0 0 .875 70.991 2.375)" d="m58.5 34.805l-3 .023c.045-5.845-2.333-11.756-6.475-15.975-4.134-4.227-10.04-6.772-16.02-6.851-6.01-.088-12.08 2.318-16.439 6.559-4.359 4.236-6.979 10.293-7.06 16.439-.086 6.147 2.369 12.34 6.706 16.793 4.335 4.455 10.509 7.123 16.793 7.207-6.284.083-12.596-2.42-17.15-6.852-4.55-4.434-7.268-10.726-7.353-17.15-.081-6.421 2.471-12.851 6.999-17.502 4.533-4.646 10.943-7.412 17.502-7.5 6.527-.079 13.04 2.496 17.787 7.078 4.736 4.59 7.572 11.07 7.713 17.728" fill="url(#0)"/></g><rect transform="matrix(.70711-.70711.70711.70711 0 0)" rx="18" y="27.962" x="-18.707" height="50.946" width="36" fill="#000e35" fill-opacity=".123"/><circle r="18" cy="33" cx="32" fill="#cde1ed"/><circle cx="32" cy="35" r="14" fill="#a2bbcb"/><path d="m54.22 27.05l-6.313-.379 1.035 3.864z" fill="#cde1ed"/></g></svg>
